X: 100352
T: OWRE THE MUIR AMONG THE HEATHER -- Variations
R: reel
B: K\"ohler's Violin Repository, v.3, 1885 p.240 #4
F: http://www.archive.org/details/klersviolinrepos03rugg
Z: 2012 John Chambers <jc:trillian.mit.edu>
M: C|
L: 1/8
Q: "Moderato"
K: D
|:\
vA,2D2 (D3E) | (DE)FE D2A,2 | B,2E2 (E3F) | (G2F2) E2D2 |\
F2A2 A2(Bc) | d3e {d}(f3e) |  (.d3.B) (BA)GF | (EF)GF (E2D2) :|
|:\
vA2d2 (d3e) | (de)fe d2A2 | B2e2 (e3f) | {a}(g3f) e2d2 |\
(f3e) d2B2 | A2(Bc) (d3e) | (.d3.B) (BA)GF | (EF)GF (E2D2) :|
|:\
vA,B,DE DA,DE | FGEF DEDA, | B,DEF EB,EF | (GF)dF (E2D2) |\
DEFG (A3B) | (A>F)AB d3e | (fd)eB (dA)BF | (E>F)GF (E2D2) :|
|:\
vAd (dc/d/) fd (dc/d/) | Adfe d2A2 | E^GB^d edef | .e(a/g/) .f(g/f/) e2d2 |\
edef dABd | AF {F}ED ABde | (fd)eB (dA)BF | (E>F)GF E2D2 :|
%%begintext center
% % (To be Continued)
%%endtext

%%sep 2 1 500

